X:1
T: Hornpipe
P:Kerr's 2nd #357
R:Reel
Q: 232
K:D
M:4/4
L:1/8
|:A2|f2 fe dc dB|AF DF AF BA|GF EF GA Bc|de fd A2 A2|
f2 fe dc dB|AF DF AF BA|GF EF GA Bc|d2 d2 d2 cd|
e^d ec A2 de|fe fd A2 f2|gf eg fe df|ed cB A2 cd|
e^d ec A2 de|fe fd A2 a2|^gf ef ed cB|A2 A2 A2:|
